X: 21011
M: 3/4
L: 1/8
K: D
dd {c}d2 AB | cd {c}B2 AB | dd d2 Af | gf e2 fg |\
af g2 fe | dd d2 {c}AB | =cB {F}G2 A^c | dd d2 |]


